svg/azure-app-service.svg

<?xml version="1.0" encoding="UTF-8"?>
<svg xmlns="http://www.w3.org/2000/svg" xmlns:xlink="http://www.w3.org/1999/xlink" width="32.109001" height="32" viewBox="0 0 32.109001 32">
<defs>
<filter id="filter-remove-color" x="0%" y="0%" width="100%" height="100%">
<feColorMatrix color-interpolation-filters="sRGB" values="0 0 0 0 1 0 0 0 0 1 0 0 0 0 1 0 0 0 1 0" />
</filter>
<radialGradient id="radial-pattern-0" gradientUnits="userSpaceOnUse" cx="13428.80957" cy="3518.860107" fx="13428.80957" fy="3518.860107" r="56.669998" gradientTransform="matrix(0.27242, 0, 0, 0.27242, -3642.096924, -942.546997)">
<stop offset="0.18" stop-color="rgb(36.862745%, 62.745098%, 93.72549%)" stop-opacity="1"/>
<stop offset="1" stop-color="rgb(0%, 47.058824%, 83.137255%)" stop-opacity="1"/>
</radialGradient>
<clipPath id="clip-0">
<path clip-rule="nonzero" d="M 0 0 L 32.125 0 L 32.125 32 L 0 32 Z M 0 0 "/>
</clipPath>
<image id="source-17" x="0" y="0" width="33" height="32" xlink:href="data:image/png;base64,iVBORw0KGgoAAAANSUhEUgAAACEAAAAgCAYAAACcuBHKAAAABmJLR0QA/wD/AP+gvaeTAAAAkElEQVRYhe3XPQoCMRRF4WNMNyCCuL9ZmStyLzYi+IOZwnfhNdM+p7gHQkII5Jt0AxtoF3NP64oG8MmIAzADxyLIF7gBF+ABvxfYA2fgVIQYcWfTRo+5xah6iZY32srB0oxQRigjlBHKCGWEMkIZoYxQRqie1uOfiAG8YlT9d7xJH92BJ3AFpgKAEPeAuO21AGQ3FCD7nw+GAAAAAElFTkSuQmCC"/>
<mask id="mask-0">
<g filter="url(#filter-remove-color)">
<use xlink:href="#source-17"/>
</g>
</mask>
<clipPath id="clip-1">
<rect x="0" y="0" width="33" height="32"/>
</clipPath>
<g id="source-16" clip-path="url(#clip-1)">
<path fill-rule="nonzero" fill="rgb(100%, 100%, 100%)" fill-opacity="1" d="M 11.96875 12.839844 C 16.335938 8.6875 22.125 6.363281 28.148438 6.339844 C 27.359375 5.359375 26.449219 4.480469 25.445312 3.722656 C 22.511719 3.902344 19.632812 4.578125 16.925781 5.722656 C 14.140625 6.921875 11.621094 8.660156 9.515625 10.84375 C 10.527344 11.226562 11.390625 11.925781 11.96875 12.839844 M 4.324219 19.050781 C 3.699219 20.59375 3.195312 22.1875 2.816406 23.808594 C 3.148438 24.390625 3.527344 24.949219 3.941406 25.480469 C 4.269531 25.898438 4.578125 26.277344 4.941406 26.660156 C 5.378906 24.5 6.035156 22.386719 6.902344 20.359375 C 5.933594 20.1875 5.035156 19.730469 4.324219 19.050781 M 4.324219 19.050781 "/>
</g>
<clipPath id="clip-2">
<rect x="0" y="0" width="33" height="32"/>
</clipPath>
<g id="source-19" clip-path="url(#clip-2)">
<g clip-path="url(#clip-0)">
<g mask="url(#mask-0)">
<use xlink:href="#source-16"/>
</g>
</g>
</g>
<clipPath id="clip-3">
<path clip-rule="nonzero" d="M 0 0 L 32.125 0 L 32.125 32 L 0 32 Z M 0 0 "/>
</clipPath>
<image id="source-34" x="0" y="0" width="33" height="32" xlink:href="data:image/png;base64,iVBORw0KGgoAAAANSUhEUgAAACEAAAAgCAYAAACcuBHKAAAABmJLR0QA/wD/AP+gvaeTAAAAYklEQVRYhe3TwQnCQBCG0RdjBR60NVtMaTloAwHjxUCYAiZB/gcLO3PZ77JEnNBQ7k/c8MKEtSPiWiIeuGPseHxzKfPw29V9a8QhErGpEZ/dabP/HStmLHh3RkRERETEX/kCNjUKFQxEqIsAAAAASUVORK5CYII="/>
<mask id="mask-1">
<g filter="url(#filter-remove-color)">
<use xlink:href="#source-34"/>
</g>
</mask>
<clipPath id="clip-4">
<rect x="0" y="0" width="33" height="32"/>
</clipPath>
<g id="source-33" clip-path="url(#clip-4)">
<path fill-rule="nonzero" fill="rgb(94.901961%, 94.901961%, 94.901961%)" fill-opacity="1" d="M 6.101562 10.804688 C 5.460938 9.085938 5.039062 7.289062 4.847656 5.464844 C 4.085938 6.265625 3.417969 7.152344 2.851562 8.101562 C 3.058594 9.570312 3.402344 11.019531 3.886719 12.421875 C 4.457031 11.683594 5.226562 11.121094 6.101562 10.804688 M 6.101562 10.804688 "/>
</g>
<clipPath id="clip-5">
<rect x="0" y="0" width="33" height="32"/>
</clipPath>
<g id="source-36" clip-path="url(#clip-5)">
<g clip-path="url(#clip-3)">
<g mask="url(#mask-1)">
<use xlink:href="#source-33"/>
</g>
</g>
</g>
<linearGradient id="linear-pattern-0" gradientUnits="userSpaceOnUse" x1="4.4" y1="11.48" x2="4.37" y2="7.53" gradientTransform="matrix(1.81612, 0, 0, 1.81612, -0.182, -0.29)">
<stop offset="0" stop-color="rgb(80%, 80%, 80%)" stop-opacity="1"/>
<stop offset="1" stop-color="rgb(98.823529%, 98.823529%, 98.823529%)" stop-opacity="1"/>
</linearGradient>
<clipPath id="clip-6">
<path clip-rule="nonzero" d="M 0 0 L 32.125 0 L 32.125 32 L 0 32 Z M 0 0 "/>
</clipPath>
<image id="source-52" x="0" y="0" width="33" height="32" xlink:href="data:image/png;base64,iVBORw0KGgoAAAANSUhEUgAAACEAAAAgCAYAAACcuBHKAAAABmJLR0QA/wD/AP+gvaeTAAAAeUlEQVRYhe3TMQrCQBAF0Bf1CFaCd/LY3kDwCPYKKUwszBY2SYQBQf7rlp2d+cUOEREREVGjW7g/Yb+i7ls9zrjCbqawwxEHbIpDPHBph7kQpuHb4hDj1PNjyM8lRJMQzdJ2DHh6/+hKw9oQI27Tg+oV7XEv7Bl/5gXNkQ/6SKY71gAAAABJRU5ErkJggg=="/>
<mask id="mask-2">
<g filter="url(#filter-remove-color)">
<use xlink:href="#source-52"/>
</g>
</mask>
<clipPath id="clip-7">
<rect x="0" y="0" width="33" height="32"/>
</clipPath>
<g id="source-51" clip-path="url(#clip-7)">
<path fill-rule="nonzero" fill="rgb(94.901961%, 94.901961%, 94.901961%)" fill-opacity="1" d="M 15 24.535156 C 15 23.664062 15.355469 22.835938 15.980469 22.230469 C 14.304688 21.3125 12.761719 20.175781 11.386719 18.851562 C 10.667969 19.628906 9.71875 20.15625 8.679688 20.359375 C 9.5 21.199219 10.378906 21.976562 11.3125 22.683594 C 12.476562 23.5625 13.726562 24.324219 15.039062 24.953125 C 15.015625 24.816406 15.003906 24.675781 15 24.535156 M 26.441406 24.917969 C 24.753906 24.917969 23.074219 24.722656 21.429688 24.335938 C 21.4375 24.402344 21.4375 24.46875 21.429688 24.535156 C 21.433594 25.378906 21.097656 26.191406 20.503906 26.789062 C 22.546875 27.191406 24.632812 27.335938 26.714844 27.222656 C 27.519531 26.492188 28.246094 25.675781 28.875 24.789062 C 28.066406 24.878906 27.253906 24.921875 26.441406 24.917969 M 26.441406 24.917969 "/>
</g>
<clipPath id="clip-8">
<rect x="0" y="0" width="33" height="32"/>
</clipPath>
<g id="source-54" clip-path="url(#clip-8)">
<g clip-path="url(#clip-6)">
<g mask="url(#mask-2)">
<use xlink:href="#source-51"/>
</g>
</g>
</g>
<linearGradient id="linear-pattern-1" gradientUnits="userSpaceOnUse" x1="10.13" y1="15.45" x2="10.13" y2="11.9" gradientTransform="matrix(1.81612, 0, 0, 1.81612, -0.182, -0.29)">
<stop offset="0" stop-color="rgb(80%, 80%, 80%)" stop-opacity="1"/>
<stop offset="1" stop-color="rgb(98.823529%, 98.823529%, 98.823529%)" stop-opacity="1"/>
</linearGradient>
<clipPath id="clip-9">
<path clip-rule="nonzero" d="M 0 0 L 32.125 0 L 32.125 32 L 0 32 Z M 0 0 "/>
</clipPath>
<image id="source-70" x="0" y="0" width="33" height="32" xlink:href="data:image/png;base64,iVBORw0KGgoAAAANSUhEUgAAACEAAAAgCAYAAACcuBHKAAAABmJLR0QA/wD/AP+gvaeTAAAAbUlEQVRYhe3VIQ6AMAxG4TfCEdAcE8thERgUOBIGhjoCLWEJ4v901z63xLMW6IEGSI55k4ER6IDlbrAKLC1GEUYRRhFGEUYRRhHmFxG1cy4DG7GvfD/ffRKxAgMwv4iYPCHepZHjVzEiIiJSxAF12A7ZWSL9uQAAAABJRU5ErkJggg=="/>
<mask id="mask-3">
<g filter="url(#filter-remove-color)">
<use xlink:href="#source-70"/>
</g>
</mask>
<clipPath id="clip-10">
<rect x="0" y="0" width="33" height="32"/>
</clipPath>
<g id="source-69" clip-path="url(#clip-10)">
<path fill-rule="nonzero" fill="rgb(94.901961%, 94.901961%, 94.901961%)" fill-opacity="1" d="M 22.191406 15.925781 C 22.351562 15.214844 22.742188 14.578125 23.300781 14.109375 C 20.308594 11.9375 17.589844 9.414062 15.199219 6.59375 C 13.808594 4.957031 12.589844 3.179688 11.570312 1.289062 C 10.890625 1.492188 10.230469 1.746094 9.589844 2.050781 C 10.683594 4.109375 11.992188 6.046875 13.492188 7.828125 C 16.046875 10.878906 18.96875 13.597656 22.191406 15.925781 M 22.191406 15.925781 "/>
</g>
<clipPath id="clip-11">
<rect x="0" y="0" width="33" height="32"/>
</clipPath>
<g id="source-72" clip-path="url(#clip-11)">
<g clip-path="url(#clip-9)">
<g mask="url(#mask-3)">
<use xlink:href="#source-69"/>
</g>
</g>
</g>
<linearGradient id="linear-pattern-2" gradientUnits="userSpaceOnUse" x1="14.18" y1="11.15" x2="14.18" y2="7.38" gradientTransform="matrix(1.81612, 0, 0, 1.81612, -0.182, -0.29)">
<stop offset="0" stop-color="rgb(80%, 80%, 80%)" stop-opacity="1"/>
<stop offset="1" stop-color="rgb(98.823529%, 98.823529%, 98.823529%)" stop-opacity="1"/>
</linearGradient>
<clipPath id="clip-12">
<path clip-rule="nonzero" d="M 0 0 L 32.125 0 L 32.125 32 L 0 32 Z M 0 0 "/>
</clipPath>
<image id="source-88" x="0" y="0" width="33" height="32" xlink:href="data:image/png;base64,iVBORw0KGgoAAAANSUhEUgAAACEAAAAgCAYAAACcuBHKAAAABmJLR0QA/wD/AP+gvaeTAAAAWUlEQVRYhe3RQQqCYBSF0WP8CDVz6K5aoeurWTQoBDUn7kB4g7hnA/eDS0RERMQf6Ir3LhjRsOCBtRVH9LhjwAsTPtURcMUNs+OJ6ogfnvjija14PyIiztsBaPIL1XAFWYcAAAAASUVORK5CYII="/>
<mask id="mask-4">
<g filter="url(#filter-remove-color)">
<use xlink:href="#source-88"/>
</g>
</mask>
<clipPath id="clip-13">
<rect x="0" y="0" width="33" height="32"/>
</clipPath>
<g id="source-87" clip-path="url(#clip-13)">
<path fill-rule="nonzero" fill="rgb(94.901961%, 94.901961%, 94.901961%)" fill-opacity="1" d="M 31.328125 18.851562 L 30.691406 18.542969 L 30.148438 18.253906 L 30.039062 18.253906 L 29.566406 17.871094 L 29.4375 17.871094 L 28.875 17.507812 C 28.679688 18.175781 28.273438 18.765625 27.714844 19.179688 C 27.933594 19.324219 28.167969 19.449219 28.402344 19.578125 L 28.550781 19.667969 L 29.183594 20.011719 L 30.746094 20.832031 C 30.96875 20.171875 31.144531 19.5 31.273438 18.816406 Z M 31.328125 18.851562 "/>
</g>
<clipPath id="clip-14">
<rect x="0" y="0" width="33" height="32"/>
</clipPath>
<g id="source-90" clip-path="url(#clip-14)">
<g clip-path="url(#clip-12)">
<g mask="url(#mask-4)">
<use xlink:href="#source-87"/>
</g>
</g>
</g>
<linearGradient id="linear-pattern-3" gradientUnits="userSpaceOnUse" x1="4.4" y1="11.48" x2="4.37" y2="7.53" gradientTransform="matrix(1.81612, 0, 0, 1.81612, -0.182, -0.29)">
<stop offset="0" stop-color="rgb(80%, 80%, 80%)" stop-opacity="1"/>
<stop offset="1" stop-color="rgb(98.823529%, 98.823529%, 98.823529%)" stop-opacity="1"/>
</linearGradient>
<linearGradient id="linear-pattern-4" gradientUnits="userSpaceOnUse" x1="10.13" y1="15.45" x2="10.13" y2="11.9" gradientTransform="matrix(1.81612, 0, 0, 1.81612, -0.182, -0.29)">
<stop offset="0" stop-color="rgb(80%, 80%, 80%)" stop-opacity="1"/>
<stop offset="1" stop-color="rgb(98.823529%, 98.823529%, 98.823529%)" stop-opacity="1"/>
</linearGradient>
</defs>
<path fill-rule="nonzero" fill="url(#radial-pattern-0)" d="M 25.625 28.257812 C 18.886719 33.484375 9.183594 32.257812 3.960938 25.515625 C -1.265625 18.777344 -0.0390625 9.074219 6.703125 3.851562 L 6.863281 3.742188 C 13.640625 -1.316406 23.222656 0.015625 28.359375 6.730469 C 33.496094 13.445312 32.277344 23.042969 25.625 28.257812 "/>
<use xlink:href="#source-19"/>
<use xlink:href="#source-36"/>
<path fill-rule="nonzero" fill="url(#linear-pattern-0)" d="M 12.730469 15.472656 C 12.730469 18.210938 10.511719 20.429688 7.773438 20.429688 C 5.035156 20.429688 2.816406 18.210938 2.816406 15.472656 C 2.816406 12.734375 5.035156 10.515625 7.773438 10.515625 C 10.511719 10.515625 12.730469 12.734375 12.730469 15.472656 M 12.730469 15.472656 "/>
<use xlink:href="#source-54"/>
<path fill-rule="nonzero" fill="url(#linear-pattern-1)" d="M 21.449219 24.535156 C 21.472656 25.703125 20.859375 26.792969 19.851562 27.382812 C 18.84375 27.972656 17.597656 27.976562 16.585938 27.386719 C 15.578125 26.796875 14.964844 25.707031 14.984375 24.539062 C 15.027344 22.785156 16.460938 21.386719 18.214844 21.382812 C 19.96875 21.382812 21.402344 22.78125 21.449219 24.535156 M 21.449219 24.535156 "/>
<use xlink:href="#source-72"/>
<path fill-rule="nonzero" fill="url(#linear-pattern-2)" d="M 29.003906 16.542969 C 29.003906 18.4375 27.464844 19.976562 25.570312 19.976562 C 23.675781 19.976562 22.136719 18.4375 22.136719 16.542969 C 22.136719 14.648438 23.675781 13.113281 25.570312 13.113281 C 27.464844 13.113281 29.003906 14.648438 29.003906 16.542969 M 29.003906 16.542969 "/>
<use xlink:href="#source-90"/>
<path fill-rule="nonzero" fill="url(#linear-pattern-3)" d="M 12.730469 15.472656 C 12.730469 18.210938 10.511719 20.429688 7.773438 20.429688 C 5.035156 20.429688 2.816406 18.210938 2.816406 15.472656 C 2.816406 12.734375 5.035156 10.515625 7.773438 10.515625 C 10.511719 10.515625 12.730469 12.734375 12.730469 15.472656 M 12.730469 15.472656 "/>
<path fill-rule="nonzero" fill="url(#linear-pattern-4)" d="M 21.449219 24.535156 C 21.472656 25.703125 20.859375 26.792969 19.851562 27.382812 C 18.84375 27.972656 17.597656 27.976562 16.585938 27.386719 C 15.578125 26.796875 14.964844 25.707031 14.984375 24.539062 C 15.027344 22.785156 16.460938 21.386719 18.214844 21.382812 C 19.96875 21.382812 21.402344 22.78125 21.449219 24.535156 M 21.449219 24.535156 "/>
</svg>

<svg role="img" viewBox="0 0 32.109 32" height="32" width="32.109" xmlns="http://www.w3.org/2000/svg"><defs><clipPath id="271__234__192__clip-0"><path d="M0 0h32.125v32H0Zm0 0"/></clipPath><clipPath id="272__235__193__clip-1"><path d="M0 0h33v32H0z"/></clipPath><clipPath id="273__236__195__clip-3"><path d="M0 0h32.125v32H0Zm0 0"/></clipPath><clipPath id="274__237__196__clip-4"><path d="M0 0h33v32H0z"/></clipPath><clipPath id="275__238__198__clip-6"><path d="M0 0h32.125v32H0Zm0 0"/></clipPath><clipPath id="276__239__199__clip-7"><path d="M0 0h33v32H0z"/></clipPath><clipPath id="277__240__201__clip-9"><path d="M0 0h32.125v32H0Zm0 0"/></clipPath><clipPath id="278__241__202__clip-10"><path d="M0 0h33v32H0z"/></clipPath><clipPath id="279__242__204__clip-12"><path d="M0 0h32.125v32H0Zm0 0"/></clipPath><clipPath id="280__243__205__clip-13"><path d="M0 0h33v32H0z"/></clipPath><g clip-path="url(#272__235__193__clip-1)" id="281__244__207__source-16"><path d="M11.969 12.84a23.615 23.615 0 0 1 16.18-6.5c-.79-.98-1.7-1.86-2.704-2.617a25.95 25.95 0 0 0-8.52 2 22.833 22.833 0 0 0-7.41 5.12 4.99 4.99 0 0 1 2.454 1.997m-7.645 6.21a32.208 32.208 0 0 0-1.508 4.759c.332.582.711 1.14 1.125 1.671.329.418.637.797 1 1.18a32.358 32.358 0 0 1 1.961-6.3 5 5 0 0 1-2.578-1.31m0 0" fill="rgb(100%, 100%, 100%)"/></g><g clip-path="url(#271__234__192__clip-0)" id="282__245__208__source-19" mask="url(#283__246__209__mask-0)"><use href="#281__244__207__source-16"/></g><g clip-path="url(#274__237__196__clip-4)" id="284__247__210__source-33"><path d="M6.102 10.805a21.82 21.82 0 0 1-1.254-5.34c-.762.8-1.43 1.687-1.996 2.637.207 1.468.55 2.918 1.035 4.32a4.92 4.92 0 0 1 2.215-1.617m0 0" fill="rgb(94.901961%, 94.901961%, 94.901961%)"/></g><g clip-path="url(#273__236__195__clip-3)" id="285__248__211__source-36" mask="url(#286__249__212__mask-1)"><use href="#284__247__210__source-33"/></g><g clip-path="url(#276__239__199__clip-7)" id="287__250__213__source-51"><path d="M15 24.535c0-.87.355-1.7.98-2.305a21.54 21.54 0 0 1-4.593-3.378 4.99 4.99 0 0 1-2.707 1.507c.82.84 1.699 1.618 2.633 2.325a21.882 21.882 0 0 0 3.726 2.27 2.969 2.969 0 0 1-.039-.419m11.441.383c-1.687 0-3.367-.195-5.011-.582a.85.85 0 0 1 0 .2 3.183 3.183 0 0 1-.926 2.253c2.043.402 4.129.547 6.21.434a15.051 15.051 0 0 0 2.161-2.434c-.809.09-1.621.133-2.434.129m0 0" fill="rgb(94.901961%, 94.901961%, 94.901961%)"/></g><g clip-path="url(#275__238__198__clip-6)" id="288__251__214__source-54" mask="url(#289__252__215__mask-2)"><use href="#287__250__213__source-51"/></g><g clip-path="url(#278__241__202__clip-10)" id="290__253__216__source-69"><path d="M22.191 15.926a3.326 3.326 0 0 1 1.11-1.817 46.188 46.188 0 0 1-8.102-7.515 30.708 30.708 0 0 1-3.629-5.305c-.68.203-1.34.457-1.98.762a33.03 33.03 0 0 0 3.902 5.777 48.03 48.03 0 0 0 8.7 8.098m0 0" fill="rgb(94.901961%, 94.901961%, 94.901961%)"/></g><g clip-path="url(#277__240__201__clip-9)" id="291__254__217__source-72" mask="url(#292__255__218__mask-3)"><use href="#290__253__216__source-69"/></g><g clip-path="url(#280__243__205__clip-13)" id="293__256__219__source-87"><path d="m31.328 18.852-.637-.309-.543-.29h-.109l-.473-.382h-.128l-.563-.363a3.198 3.198 0 0 1-1.16 1.672c.219.144.453.27.687.398l.149.09.633.344 1.562.82c.223-.66.399-1.332.527-2.016Zm0 0" fill="rgb(94.901961%, 94.901961%, 94.901961%)"/></g><g clip-path="url(#279__242__204__clip-12)" id="294__257__220__source-90" mask="url(#295__258__221__mask-4)"><use href="#293__256__219__source-87"/></g><linearGradient gradientTransform="translate(-.182 -.29)scale(1.81612)" gradientUnits="userSpaceOnUse" id="296__259__222__azure-app-service-lp-0" x1="4.4" x2="4.37" y1="11.48" y2="7.53"><stop offset="0" stop-color="rgb(80%, 80%, 80%)"/><stop offset="1" stop-color="rgb(98.823529%, 98.823529%, 98.823529%)"/></linearGradient><linearGradient gradientTransform="translate(-.182 -.29)scale(1.81612)" gradientUnits="userSpaceOnUse" id="297__260__223__linear-pattern-1" x1="10.13" x2="10.13" y1="15.45" y2="11.9"><stop offset="0" stop-color="rgb(80%, 80%, 80%)"/><stop offset="1" stop-color="rgb(98.823529%, 98.823529%, 98.823529%)"/></linearGradient><linearGradient gradientTransform="translate(-.182 -.29)scale(1.81612)" gradientUnits="userSpaceOnUse" id="298__261__224__linear-pattern-2" x1="14.18" x2="14.18" y1="11.15" y2="7.38"><stop offset="0" stop-color="rgb(80%, 80%, 80%)"/><stop offset="1" stop-color="rgb(98.823529%, 98.823529%, 98.823529%)"/></linearGradient><linearGradient gradientTransform="translate(-.182 -.29)scale(1.81612)" gradientUnits="userSpaceOnUse" id="299__262__225__linear-pattern-3" x1="4.4" x2="4.37" y1="11.48" y2="7.53"><stop offset="0" stop-color="rgb(80%, 80%, 80%)"/><stop offset="1" stop-color="rgb(98.823529%, 98.823529%, 98.823529%)"/></linearGradient><linearGradient gradientTransform="translate(-.182 -.29)scale(1.81612)" gradientUnits="userSpaceOnUse" id="300__263__226__linear-pattern-4" x1="10.13" x2="10.13" y1="15.45" y2="11.9"><stop offset="0" stop-color="rgb(80%, 80%, 80%)"/><stop offset="1" stop-color="rgb(98.823529%, 98.823529%, 98.823529%)"/></linearGradient><image height="32" href="data:image/png;base64,iVBORw0KGgoAAAANSUhEUgAAACEAAAAgCAYAAACcuBHKAAAABmJLR0QA/wD/AP+gvaeTAAAAkElEQVRYhe3XPQoCMRRF4WNMNyCCuL9ZmStyLzYi+IOZwnfhNdM+p7gHQkII5Jt0AxtoF3NP64oG8MmIAzADxyLIF7gBF+ABvxfYA2fgVIQYcWfTRo+5xah6iZY32srB0oxQRigjlBHKCGWEMkIZoYxQRqie1uOfiAG8YlT9d7xJH92BJ3AFpgKAEPeAuO21AGQ3FCD7nw+GAAAAAElFTkSuQmCC" id="301__264__227__source-17" width="33" x="0" y="0"/><image height="32" href="data:image/png;base64,iVBORw0KGgoAAAANSUhEUgAAACEAAAAgCAYAAACcuBHKAAAABmJLR0QA/wD/AP+gvaeTAAAAYklEQVRYhe3TwQnCQBCG0RdjBR60NVtMaTloAwHjxUCYAiZB/gcLO3PZ77JEnNBQ7k/c8MKEtSPiWiIeuGPseHxzKfPw29V9a8QhErGpEZ/dabP/HStmLHh3RkRERETEX/kCNjUKFQxEqIsAAAAASUVORK5CYII=" id="302__265__228__source-34" width="33" x="0" y="0"/><image height="32" href="data:image/png;base64,iVBORw0KGgoAAAANSUhEUgAAACEAAAAgCAYAAACcuBHKAAAABmJLR0QA/wD/AP+gvaeTAAAAeUlEQVRYhe3TMQrCQBAF0Bf1CFaCd/LY3kDwCPYKKUwszBY2SYQBQf7rlp2d+cUOEREREVGjW7g/Yb+i7ls9zrjCbqawwxEHbIpDPHBph7kQpuHb4hDj1PNjyM8lRJMQzdJ2DHh6/+hKw9oQI27Tg+oV7XEv7Bl/5gXNkQ/6SKY71gAAAABJRU5ErkJggg==" id="303__266__229__source-52" width="33" x="0" y="0"/><image height="32" href="data:image/png;base64,iVBORw0KGgoAAAANSUhEUgAAACEAAAAgCAYAAACcuBHKAAAABmJLR0QA/wD/AP+gvaeTAAAAbUlEQVRYhe3VIQ6AMAxG4TfCEdAcE8thERgUOBIGhjoCLWEJ4v901z63xLMW6IEGSI55k4ER6IDlbrAKLC1GEUYRRhFGEUYRRhHmFxG1cy4DG7GvfD/ffRKxAgMwv4iYPCHepZHjVzEiIiJSxAF12A7ZWSL9uQAAAABJRU5ErkJggg==" id="304__267__230__source-70" width="33" x="0" y="0"/><image height="32" href="data:image/png;base64,iVBORw0KGgoAAAANSUhEUgAAACEAAAAgCAYAAACcuBHKAAAABmJLR0QA/wD/AP+gvaeTAAAAWUlEQVRYhe3RQQqCYBSF0WP8CDVz6K5aoeurWTQoBDUn7kB4g7hnA/eDS0RERMQf6Ir3LhjRsOCBtRVH9LhjwAsTPtURcMUNs+OJ6ogfnvjija14PyIiztsBaPIL1XAFWYcAAAAASUVORK5CYII=" id="305__268__231__source-88" width="33" x="0" y="0"/><mask id="283__246__209__mask-0"><g filter="url(#306__269__232__filter-remove-color)"><use href="#301__264__227__source-17"/></g></mask><mask id="286__249__212__mask-1"><g filter="url(#306__269__232__filter-remove-color)"><use href="#302__265__228__source-34"/></g></mask><mask id="289__252__215__mask-2"><g filter="url(#306__269__232__filter-remove-color)"><use href="#303__266__229__source-52"/></g></mask><mask id="292__255__218__mask-3"><g filter="url(#306__269__232__filter-remove-color)"><use href="#304__267__230__source-70"/></g></mask><mask id="295__258__221__mask-4"><g filter="url(#306__269__232__filter-remove-color)"><use href="#305__268__231__source-88"/></g></mask><radialGradient cx="13428.81" cy="3518.86" fx="13428.81" fy="3518.86" gradientTransform="translate(-3642.097 -942.547)scale(.27242)" gradientUnits="userSpaceOnUse" id="307__270__233__radial-pattern-0" r="56.67"><stop offset=".18" stop-color="rgb(36.862745%, 62.745098%, 93.72549%)"/><stop offset="1" stop-color="rgb(0%, 47.058824%, 83.137255%)"/></radialGradient><filter height="100%" id="306__269__232__filter-remove-color" width="100%" x="0%" y="0%"><feColorMatrix color-interpolation-filters="sRGB" values="0 0 0 0 1 0 0 0 0 1 0 0 0 0 1 0 0 0 1 0"/></filter></defs><path d="M25.625 28.258c-6.738 5.226-16.441 4-21.664-2.742-5.227-6.739-4-16.442 2.742-21.664l.16-.11C13.641-1.316 23.223.016 28.36 6.73c5.137 6.715 3.918 16.313-2.734 21.528" fill="url(#307__270__233__radial-pattern-0)"/><use href="#282__245__208__source-19"/><use href="#285__248__211__source-36"/><path d="M12.73 15.473a4.956 4.956 0 0 1-4.957 4.957 4.956 4.956 0 0 1-4.957-4.957 4.956 4.956 0 0 1 4.957-4.957 4.956 4.956 0 0 1 4.957 4.957m0 0" fill="url(#296__259__222__linear-pattern-0)"/><use href="#288__251__214__source-54"/><path d="M21.45 24.535a3.234 3.234 0 0 1-4.863 2.852 3.24 3.24 0 0 1-1.603-2.848 3.237 3.237 0 0 1 3.23-3.156 3.237 3.237 0 0 1 3.235 3.152m0 0" fill="url(#297__260__223__linear-pattern-1)"/><use href="#291__254__217__source-72"/><path d="M29.004 16.543a3.436 3.436 0 0 1-3.434 3.434 3.436 3.436 0 0 1-3.433-3.434 3.432 3.432 0 0 1 3.433-3.43 3.433 3.433 0 0 1 3.434 3.43m0 0" fill="url(#298__261__224__linear-pattern-2)"/><use href="#294__257__220__source-90"/><path d="M12.73 15.473a4.956 4.956 0 0 1-4.957 4.957 4.956 4.956 0 0 1-4.957-4.957 4.956 4.956 0 0 1 4.957-4.957 4.956 4.956 0 0 1 4.957 4.957m0 0" fill="url(#299__262__225__linear-pattern-3)"/><path d="M21.45 24.535a3.234 3.234 0 0 1-4.863 2.852 3.24 3.24 0 0 1-1.603-2.848 3.237 3.237 0 0 1 3.23-3.156 3.237 3.237 0 0 1 3.235 3.152m0 0" fill="url(#300__263__226__linear-pattern-4)"/></svg>
